images/icon/integrations.svg

<svg height="140" viewBox="0 0 140 140" width="140" xmlns="http://www.w3.org/2000/svg"><path d="m8.846 5.644v-1.288l.575-.721a.766.766 0 0 0 .065-.864l-.312-.542a.769.769 0 0 0 -.781-.376l-.912.138-1.116-.644-.336-.858a.77.77 0 0 0 -.716-.489h-.626a.77.77 0 0 0 -.716.489l-.336.858-1.116.644-.912-.138a.769.769 0 0 0 -.781.376l-.312.542a.766.766 0 0 0 .065.864l.575.721v1.288l-.575.721a.766.766 0 0 0 -.065.864l.312.542a.769.769 0 0 0 .781.376l.912-.138 1.116.644.336.858a.77.77 0 0 0 .716.489h.626a.77.77 0 0 0 .716-.489l.336-.858 1.116-.644.912.138a.769.769 0 0 0 .781-.376l.312-.542a.766.766 0 0 0 -.065-.864zm-3.846.856a1.5 1.5 0 1 1 1.5-1.5 1.5 1.5 0 0 1 -1.5 1.5z" transform="scale(14)"/></svg>

<svg viewBox="0 0 140 140" height="140" width="140" xmlns="http://www.w3.org/2000/svg"><g transform="matrix(14,0,0,14,0,0)"><path d="M8.846,5.644V4.356l.575-.721a.766.766,0,0,0,.065-.864l-.312-.542a.769.769,0,0,0-.781-.376l-.912.138L6.365,1.347,6.029.489A.77.77,0,0,0,5.313,0H4.687a.77.77,0,0,0-.716.489l-.336.858-1.116.644-.912-.138a.769.769,0,0,0-.781.376l-.312.542a.766.766,0,0,0,.065.864l.575.721V5.644l-.575.721a.766.766,0,0,0-.065.864l.312.542a.769.769,0,0,0,.781.376l.912-.138,1.116.644.336.858A.77.77,0,0,0,4.687,10h.626a.77.77,0,0,0,.716-.489l.336-.858,1.116-.644.912.138a.769.769,0,0,0,.781-.376l.312-.542a.766.766,0,0,0-.065-.864ZM5,6.5A1.5,1.5,0,1,1,6.5,5,1.5,1.5,0,0,1,5,6.5Z" fill="#000" stroke="none" stroke-linecap="round" stroke-linejoin="round" stroke-width="0"></path></g></svg>
